X:1
T:Nouv 5.(La jambe me fait mal)
T:Nouv 5.(La jambe me fait mal)
T:Trascrizione e adattamento diGian Mario Navillod
C:Trascrizione e adattamento diGian Mario Navillod
L:1/8
Q:1/4=240
M:4/4
K:C
V:1 treble 
V:1
 A4 A2 B2 | c6 e2 | d2 c2 B2 c2 | A4 ^G4 | A4 A2 B2 | c6 e2 | d2 B2 c2 d2 | e6 z2 | A4 A2 B2 | %9
w: Li~a proun de|gènt Que|van en rou ma|va ge;|Li~a proun de|gènt Que|van en Be te|lèn|Li vo le~a|
 c6 e2 | d2 c2 B2 c2 | A4 ^G4 | A4 A2 B2 | c6 e2 | d2 B2 c2 d2 | e4 z2 e2 | A3 ^G A2 B2 | %17
w: na, Ai|quà si proun con|ra ge:|Li vo le~a|na S'iéu|po de ca mi|na. La|cam bo me fai|
 c4 e2 e2 | d2 c2 B2 c2 | A4 ^G3 G | A3 ^G A2 B2 | c4 e2 e2 | d2 c2 B3 c | A6 z2 |] %24
w: mau, Bou to|sel lo, bou to|sel lo; La|cam bo me fai|mau, Bou to|sel lo~à moun chi|vau.|

